X:41
T:Flowers of Edinburgh
C:Scottish
M:4/4
K:G
L: 1/8
(uGE) |: "G" D2 DE G2 GA | BGB(d "C" cB)AG | "D" FGF(E DE)FG | AFBF "C" E2 (GE) |
"G" D2 DE G2 GA | BABd "C" e(fge) | "D" dcBA "G" GFGA |1 "G" B2 (GF) G2 (GE) :|2 "G" B2 (GF) G2 (Bd) ||
|: "G" g2 (gf) gbag | "D" f2 (fe) fagf | "C" ede(f gf)ed | "Em" B2 e2 e2 (ge) |
"G" dBGB d2 (Bd) | "C" edef "A7" g2 (fe) | "D" dcBA "G" GFGA |1 "G" B2 (GF) G2 (Bd) :|2 "G" B2 G2 G2 z2 |]
W: Ellen added slurs & changed a few notes here.

